public/avatar/item0/11.svg

<svg xmlns:xlink="http://www.w3.org/1999/xlink" height="58.65" width="49.15" xmlns="http://www.w3.org/2000/svg"><g transform="translate(24.1 18.1)"><use height="29.95" transform="translate(-15.9 6.4)" width="30.75" xlink:href="#a"/><use height="27.9" transform="matrix(-.7098 0 0 .5786 13.769 -5.722)" width="13.95" xlink:href="#b"/><use height="27.9" transform="matrix(.7098 0 0 .5786 -13.169 -5.772)" width="13.95" xlink:href="#b"/><use height="25.4" transform="translate(-9.7 -3.2)" width="20.25" xlink:href="#c"/></g><defs><g id="a"><path d="M12.85 23.75q-.25 1.75-1.7 2.8l-2.25 1.8-.85.6v.1l-.3.15q.3.55.1 1.4-.4 1.55-2.05 2.05-.1 2-2.2 2.05l-.5-.1q-.5 1.15-1.65 1.7l-.65.05q-1.4-.35-2.05-1.7-2.3.05-3.5-2.1-1.45.05-2.2-1.4l-.15-.8-.45-.7q-6.8-1.75-7.5-8.5-.3-2.7.85-4.85l.55-.35q1.9 1 1.35 3.55-.25 1-.15 2.05.5 3.75 4.3 5 1.55.5 2.55 1.65l1.6 1.5 2 1.5q.85.15 1.3.85l2.55-.1q-2.3.45-4.65-.05l-.95-.25.3.35q.5-.2.95.15 1.1-.3 1.7.7.5.15.55.7v.15l.5.35v.05h.3Q.9 33 1.9 32.45h.45l1.45.1.35-.8.1-.2v-.35l-.4.2.5-2.2q.15-.5.75-.55l.4-.1q.6-1.9 2.45-3.05l.65-.5 1.4-1.05q-.35-2.2 1.2-3.2l.15-.05q1.75.8 1.5 3.05" fill="#24213f" fill-opacity=".251" fill-rule="evenodd" transform="translate(15.9 -6.4)"/><path d="m-2.45 8.8.9.2 3.35.15q1.7-.15 3.1-.7l.85-.8.05-.4V7.2l.75.4.65.4v.05l.7.6.35.35 1.4 1.7 1.15 1.95.85 1.85.6 1.45h.05l.65 3.15q.9.15 1.4 1.05-.75 1.15-1.75 1.05 1.4.3.75 1.4l-1.85-.3q2.05.9 1.6 1.65-.45.75-2.5.3l-.2.95v.05l-.1.2h-.25L8.7 26.8l-.8.6-.7.45v.05l-.95.5.15.5.25.75q.25.65-.25 1.1l-.1-.05q-.4-.1-.65-.35l-.7-.9q.1 1.55-.35 3.15l-.45.4-.35-.2-1.2-1.4.05 1.7q-.2 1.15-1.3 1.6l-.15-.1-.9-1.25-.55-1.45-.1-.65-.1.7q-.05.75-.9.9l-.25-4.45h1.5l-3.85-3.3h-.35l-.7-.75-1.75-1.9v-1.1l3.9-11.4.4-1.15" fill="#fcc" fill-rule="evenodd" transform="translate(15.9 -6.4)"/><path d="M-1.6 28.4h-.05l.25 4.45-.6-.3q-.65-.25-.9-.9l-.55-2.1-.75.55-.5.05-.15-.2-.8-2.1q-2.4-.85-4.3-2.4h-.45l-.25-.3-1-1.2-.1-.1-1.55.25q-.65-.05-.55-.45.2-1.05.85-1.4l-1.35.1q-.7-.75.5-1.4h.05l.25-.15-.3.05q-.85 0-1.55-.5.75-.9 1.95-1.3-.3-2.05.35-3.05l.9-1.5 1.95-2.75 2.05-2.3 1.45-1.3 1.75-1 .45-.25-.05.75q.9.75 2.15 1.15l-.4 1.15-3.9 11.4v1.1l1.75 1.9.7.75h.3l3.85 3.3H-1.6" fill="#ffaeae" fill-rule="evenodd" transform="translate(15.9 -6.4)"/><path d="m-13.8 20.95-.05-.1.3-.05-.25.15" fill="#fff" fill-rule="evenodd" transform="translate(15.9 -6.4)"/><path d="m7.15 8 .75.65.35.35 1.4 1.7 1.15 1.95.85 1.85.6 1.45.7 3.15q.9.15 1.4 1.05-.75 1.15-1.75 1.05 1.4.3.75 1.4l-1.85-.3q2.05.9 1.6 1.65-.45.75-2.5.3l-.2.95q-.25.1-.35.25L8.7 26.8l-.8.6-.8.5-.95.5.15.5.25.75q.25.65-.25 1.1l-.1-.05-.6-.35-.75-.9q.1 1.55-.35 3.15l-.45.4-.35-.2-1.2-1.4.05 1.7q-.2 1.15-1.25 1.6l-.15-.1-.9-1.25-.55-1.45-.1-.65-.1.7q-.05.75-.9.9l-.6-.3q-.65-.25-.9-.9l-.55-2.1-.75.55-.5.05-.15-.2-.8-2.1q-2.4-.85-4.3-2.4l-.45-.35-.25-.2-1.05-1.1-.05.05-1.55.25q-.65-.05-.55-.45.2-1.05.85-1.4l-1.35.1q-.7-.75.5-1.4h.05l.25-.15-.3.05q-.85 0-1.55-.5.75-.9 1.95-1.3-.3-2.05.35-3.05l.9-1.5 1.95-2.75 2.05-2.3 1.45-1.3 1.75-1 .45-.25m17.5 12.2h-.85m-1.5 5.15-1.1-.35m-22.25-5-.7.15m1.75 4.75 1.15-.5" fill="none" stroke="#f66" stroke-linecap="round" stroke-linejoin="round" transform="translate(15.9 -6.4)"/></g><g id="e"><path d="m-6.1-2.85-.3-.6q-.5-4.95 2.3-8.95l.75-1.05q5.25 2.2 6.05 8.1.8 5.85 1.9 9.8l1.85 7.15q-.4.2-1.25.7l-1.05.45q-.6-6.05-2.5-11.7Q.05-3.7-3.1-7.7l-1.6.05q-.75.55-.95 2.35-.2 1.8-.45 2.45" fill="#fcc" fill-rule="evenodd" transform="translate(7 13.95)"/><path d="M-6.1-2.85q.25-.65.45-2.45.2-1.8.95-2.35l1.6-.05q3.15 4 4.75 8.75 1.9 5.65 2.5 11.7l-1.85.7q-2.2-3.2-4-6.9l-4.4-9.4" fill="#fff" fill-rule="evenodd" transform="translate(7 13.95)"/><path d="M2.3 13.45q-2.2-3.2-4-6.9l-4.4-9.4-.3-.6q-.5-4.95 2.3-8.95l.75-1.05q5.25 2.2 6.05 8.1.8 5.85 1.9 9.8l1.85 7.15" fill="none" stroke="#f66" stroke-linecap="round" stroke-linejoin="round" transform="translate(7 13.95)"/></g><g id="c"><path d="M.5-2.65Q2.05-2.9 1.75-1.3q-.15.7-.8.5-1.8-.45-.45-1.85m4.15 2.5q-1.15-1.3.15-2Q6.45-2.3 6.35-.9 6.1.8 4.9.05l-.25-.2m.15 6.1V7.4l-.4.35-.5.2-2.7.3-2.45-.2-.3-.1-1.6-.45-.55-.3V5.6l2.6.9 2.75.15 2.6-.6.55-.1m-8-5.3q-.55.3-1.1-.55-.95-1.4.75-1.6 1.4.65.35 2.15" fill="#f60" fill-rule="evenodd" transform="translate(9.7 3.2)"/><path d="m4.65-.15.25.2L4.8 0l-.15-.15" fill="#f90" fill-rule="evenodd" transform="translate(9.7 3.2)"/><path d="m4.9.05-.05 3.4q-.1 1.25-.05 2.5l-.55.1-2.6.6-2.75-.15-2.6-.9V2.55q-.1-1.3.5-1.9 1.3.65 2.05 1.85l.6 1.75Q-.4 1.6.6.2l.25-.5Q1.65.9 2.1 4.25 2.6.95 4.35 0l.3-.15.15.15.1.05M4.8 7.4v.55l-.05.35-.7.7-2.55.6-2.75-.15-.7-.2q-1.05-.3-1.8-.95v-.6l.05-.5.55.3 1.6.45.3.1 2.45.2 2.7-.3.5-.2.4-.35" fill="url(#d)" fill-rule="evenodd" transform="translate(9.7 3.2)"/><path d="M.5-2.65Q-.85-1.25.95-.8q.65.2.8-.5.3-1.6-1.25-1.35m4.15 2.5q-1.15-1.3.15-2Q6.45-2.3 6.35-.9 6.1.8 4.9.05l-.05 3.4q-.1 1.25-.05 2.5v2l-.05.35-.7.7-2.55.6-2.75-.15-.7-.2q-1.05-.3-1.8-.95v-.6l.05-.5V2.55q-.1-1.3.5-1.9-.55.3-1.1-.55-.95-1.4.75-1.6 1.4.65.35 2.15 1.3.65 2.05 1.85l.6 1.75Q-.4 1.6.6.2l.25-.5Q1.65.9 2.1 4.25 2.6.95 4.35 0l.3-.15.15.15.1.05" fill="none" stroke="#c46200" stroke-linecap="round" stroke-linejoin="round" transform="translate(9.7 3.2)"/><path d="m3.75 15.95-2.9-.4-3.25.3-1.45-.15q0-.5 1.3-1.45l.65-.4q1.1-.55 2.45-.6 1.4 0 2.45.6l.6.4q1.3.95 1.3 1.5 0 .45-1.15.2" fill="#ffa1cc" fill-rule="evenodd" transform="translate(9.7 3.2)"/><path d="m.35 20.4-1.9-2.45q1.55-.55 4.1 0L.35 20.4" fill="#c00" fill-rule="evenodd" transform="translate(9.7 3.2)"/><path d="m8.1 16.25 1.9-.5M8.1 17.4l1.95-.5m-9.7 4.7v-1.2m-7.6-4.55-1.95-.5m1.95 1.6-1.95-.45" fill="none" stroke="#f66" stroke-linecap="round" stroke-linejoin="round" transform="translate(9.7 3.2)"/><path d="m.35 21.6.85.1h2.1q1.3-.15 2.55-.85 1.2-.7 3.4-1.65m-17.85-.45q2.2.95 3.35 1.7 1.15.7 2.5 1.1l2.2.15.9-.1m1.8-6.8.85-.95q1.25-1.25 2.5-1.15 1.6.1 2.4 1.4m-9 .65-.8-.9q-1.3-1.3-2.55-1.2-1.65.1-2.45 1.4" fill="none" stroke="#bb4851" stroke-linecap="round" stroke-linejoin="round" transform="translate(9.7 3.2)"/></g><linearGradient gradientTransform="matrix(.0053 0 0 .0042 .6 3.15)" gradientUnits="userSpaceOnUse" id="d" spreadMethod="pad" x1="-819.2" x2="819.2"><stop offset="0" stop-color="#f90"/><stop offset=".475" stop-color="#ff3"/><stop offset="1" stop-color="#f90"/></linearGradient><use height="27.9" width="13.95" xlink:href="#e" id="b"/></defs></svg>

<?xml version="1.0" encoding="UTF-8" standalone="no"?>
<svg xmlns:xlink="http://www.w3.org/1999/xlink" height="58.65px" width="49.15px" xmlns="http://www.w3.org/2000/svg">
  <g transform="matrix(1.0, 0.0, 0.0, 1.0, 24.1, 18.1)">
    <use height="29.95" transform="matrix(1.0, 0.0, 0.0, 1.0, -15.9, 6.4)" width="30.75" xlink:href="#shape0"/>
    <use height="27.9" transform="matrix(-0.7098, 0.0, 0.0, 0.5786, 13.7689, -5.7217)" width="13.95" xlink:href="#sprite0"/>
    <use height="27.9" transform="matrix(0.7098, 0.0, 0.0, 0.5786, -13.1689, -5.7717)" width="13.95" xlink:href="#sprite0"/>
    <use height="25.4" transform="matrix(1.0, 0.0, 0.0, 1.0, -9.7, -3.2)" width="20.25" xlink:href="#shape2"/>
  </g>
  <defs>
    <g id="shape0" transform="matrix(1.0, 0.0, 0.0, 1.0, 15.9, -6.4)">
      <path d="M12.85 23.75 Q12.6 25.5 11.15 26.55 L8.9 28.35 8.05 28.95 8.05 29.05 7.75 29.2 Q8.05 29.75 7.85 30.6 7.45 32.15 5.8 32.65 5.7 34.65 3.6 34.7 L3.1 34.6 Q2.6 35.75 1.45 36.3 L0.8 36.35 Q-0.6 36.0 -1.25 34.65 -3.55 34.7 -4.75 32.55 -6.2 32.6 -6.95 31.15 L-7.1 30.35 -7.55 29.65 Q-14.35 27.9 -15.05 21.15 -15.35 18.45 -14.2 16.3 L-13.65 15.95 Q-11.75 16.95 -12.3 19.5 -12.55 20.5 -12.45 21.55 -11.95 25.3 -8.15 26.55 -6.6 27.05 -5.6 28.2 L-4.0 29.7 -2.0 31.2 Q-1.15 31.35 -0.7 32.05 L1.85 31.95 Q-0.45 32.4 -2.8 31.9 L-3.75 31.65 -3.45 32.0 Q-2.95 31.8 -2.5 32.15 -1.4 31.85 -0.8 32.85 -0.3 33.0 -0.25 33.55 L-0.25 33.7 0.25 34.05 0.25 34.1 0.55 34.1 Q0.9 33.0 1.9 32.45 L2.35 32.45 3.8 32.55 4.15 31.75 4.25 31.55 4.25 31.2 3.85 31.4 4.35 29.2 Q4.5 28.7 5.1 28.65 L5.5 28.55 Q6.1 26.65 7.95 25.5 L8.6 25.0 10.0 23.95 Q9.65 21.75 11.2 20.75 L11.35 20.7 Q13.1 21.5 12.85 23.75" fill="#24213f" fill-opacity="0.2509804" fill-rule="evenodd" stroke="none"/>
      <path d="M-2.45 8.8 L-1.55 9.0 1.8 9.15 Q3.5 9.0 4.9 8.45 L5.75 7.65 5.8 7.25 5.8 7.2 6.55 7.6 7.2 8.0 7.2 8.05 7.9 8.65 8.25 9.0 9.65 10.7 10.8 12.65 11.65 14.5 12.25 15.95 12.3 15.95 12.95 19.1 Q13.85 19.25 14.35 20.15 13.6 21.3 12.6 21.2 14.0 21.5 13.35 22.6 L11.5 22.3 Q13.55 23.2 13.1 23.95 12.65 24.7 10.6 24.25 L10.4 25.2 10.4 25.25 10.3 25.45 10.05 25.45 8.7 26.8 7.9 27.4 7.2 27.85 7.2 27.9 6.25 28.4 6.4 28.9 6.65 29.65 Q6.9 30.3 6.4 30.75 L6.3 30.7 Q5.9 30.6 5.65 30.35 L4.95 29.45 Q5.05 31.0 4.6 32.6 L4.15 33.0 3.8 32.8 2.6 31.4 2.65 33.1 Q2.45 34.25 1.35 34.7 L1.2 34.6 0.3 33.35 -0.25 31.9 -0.35 31.25 -0.45 31.95 Q-0.5 32.7 -1.35 32.85 L-1.6 28.4 -0.15 28.4 -0.1 28.4 -3.95 25.1 -4.0 25.1 -4.3 25.1 -5.0 24.35 -6.75 22.45 -6.75 21.35 -2.85 9.95 -2.45 8.8" fill="#ffcccc" fill-rule="evenodd" stroke="none"/>
      <path d="M-1.6 28.4 L-1.65 28.4 -1.4 32.85 -2.0 32.55 Q-2.65 32.3 -2.9 31.65 L-3.45 29.55 -4.2 30.1 -4.7 30.15 -4.85 29.95 -5.65 27.85 Q-8.05 27.0 -9.95 25.45 L-10.4 25.45 -10.65 25.15 -11.65 23.95 -11.75 23.85 -13.3 24.1 Q-13.95 24.05 -13.85 23.65 -13.65 22.6 -13.0 22.25 L-14.35 22.35 Q-15.05 21.6 -13.85 20.95 L-13.8 20.95 -13.55 20.8 -13.85 20.85 Q-14.7 20.85 -15.4 20.35 -14.65 19.45 -13.45 19.05 -13.75 17.0 -13.1 16.0 L-12.2 14.5 -10.25 11.75 -8.2 9.45 -6.75 8.15 -5.0 7.15 -4.55 6.9 -4.6 7.65 Q-3.7 8.4 -2.45 8.8 L-2.85 9.95 -6.75 21.35 -6.75 22.45 -5.0 24.35 -4.3 25.1 -4.0 25.1 -0.15 28.4 -1.6 28.4" fill="#ffaeae" fill-rule="evenodd" stroke="none"/>
      <path d="M-13.8 20.95 L-13.85 20.85 -13.55 20.8 -13.8 20.95" fill="#ffffff" fill-rule="evenodd" stroke="none"/>
      <path d="M7.15 8.0 L7.9 8.65 8.25 9.0 9.65 10.7 10.8 12.65 11.65 14.5 12.25 15.95 12.95 19.1 Q13.85 19.25 14.35 20.15 13.6 21.3 12.6 21.2 14.0 21.5 13.35 22.6 L11.5 22.3 Q13.55 23.2 13.1 23.95 12.65 24.7 10.6 24.25 L10.4 25.2 Q10.15 25.3 10.05 25.45 L8.7 26.8 7.9 27.4 7.1 27.9 6.15 28.4 6.3 28.9 6.55 29.65 Q6.8 30.3 6.3 30.75 L6.2 30.7 5.6 30.35 4.85 29.45 Q4.95 31.0 4.5 32.6 L4.05 33.0 3.7 32.8 2.5 31.4 2.55 33.1 Q2.35 34.25 1.3 34.7 L1.15 34.6 0.25 33.35 -0.3 31.9 -0.4 31.25 -0.5 31.95 Q-0.55 32.7 -1.4 32.85 L-2.0 32.55 Q-2.65 32.3 -2.9 31.65 L-3.45 29.55 -4.2 30.1 -4.7 30.15 -4.85 29.95 -5.65 27.85 Q-8.05 27.0 -9.95 25.45 L-10.4 25.1 -10.65 24.9 -11.7 23.8 -11.75 23.85 -13.3 24.1 Q-13.95 24.05 -13.85 23.65 -13.65 22.6 -13.0 22.25 L-14.35 22.35 Q-15.05 21.6 -13.85 20.95 L-13.8 20.95 -13.55 20.8 -13.85 20.85 Q-14.7 20.85 -15.4 20.35 -14.65 19.45 -13.45 19.05 -13.75 17.0 -13.1 16.0 L-12.2 14.5 -10.25 11.75 -8.2 9.45 -6.75 8.15 -5.0 7.15 -4.55 6.9 M12.95 19.1 L12.1 19.1 M10.6 24.25 L9.5 23.9 M-12.75 18.9 L-13.45 19.05 M-11.7 23.8 L-10.55 23.3" fill="none" stroke="#ff6666" stroke-linecap="round" stroke-linejoin="round" stroke-width="1.0"/>
    </g>
    <g id="sprite0" transform="matrix(1.0, 0.0, 0.0, 1.0, 7.0, 13.95)">
      <use height="27.9" transform="matrix(1.0, 0.0, 0.0, 1.0, -7.0, -13.95)" width="13.95" xlink:href="#shape1"/>
    </g>
    <g id="shape1" transform="matrix(1.0, 0.0, 0.0, 1.0, 7.0, 13.95)">
      <path d="M-6.1 -2.85 L-6.4 -3.45 Q-6.9 -8.4 -4.1 -12.4 L-3.35 -13.45 Q1.9 -11.25 2.7 -5.35 3.5 0.5 4.6 4.45 L6.45 11.6 Q6.05 11.8 5.2 12.3 L4.15 12.75 Q3.55 6.7 1.65 1.05 0.05 -3.7 -3.1 -7.7 L-4.7 -7.65 Q-5.45 -7.1 -5.65 -5.3 -5.85 -3.5 -6.1 -2.85" fill="#ffcccc" fill-rule="evenodd" stroke="none"/>
      <path d="M-6.1 -2.85 Q-5.85 -3.5 -5.65 -5.3 -5.45 -7.1 -4.7 -7.65 L-3.1 -7.7 Q0.05 -3.7 1.65 1.05 3.55 6.7 4.15 12.75 L2.3 13.45 Q0.1 10.25 -1.7 6.55 L-6.1 -2.85" fill="#ffffff" fill-rule="evenodd" stroke="none"/>
      <path d="M2.3 13.45 Q0.1 10.25 -1.7 6.55 L-6.1 -2.85 -6.4 -3.45 Q-6.9 -8.4 -4.1 -12.4 L-3.35 -13.45 Q1.9 -11.25 2.7 -5.35 3.5 0.5 4.6 4.45 L6.45 11.6" fill="none" stroke="#ff6666" stroke-linecap="round" stroke-linejoin="round" stroke-width="1.0"/>
    </g>
    <g id="shape2" transform="matrix(1.0, 0.0, 0.0, 1.0, 9.7, 3.2)">
      <path d="M0.5 -2.65 Q2.05 -2.9 1.75 -1.3 1.6 -0.6 0.95 -0.8 -0.85 -1.25 0.5 -2.65 M4.65 -0.15 Q3.5 -1.45 4.8 -2.15 6.45 -2.3 6.35 -0.9 6.1 0.8 4.9 0.05 L4.65 -0.15 M4.8 5.95 L4.8 7.4 4.4 7.75 3.9 7.95 1.2 8.25 -1.25 8.05 -1.55 7.95 -3.15 7.5 -3.7 7.2 -3.7 5.6 -1.1 6.5 1.65 6.65 4.25 6.05 4.8 5.95 M-3.2 0.65 Q-3.75 0.95 -4.3 0.1 -5.25 -1.3 -3.55 -1.5 -2.15 -0.85 -3.2 0.65" fill="#ff6600" fill-rule="evenodd" stroke="none"/>
      <path d="M4.65 -0.15 L4.9 0.05 4.8 0.0 4.65 -0.15" fill="#ff9900" fill-rule="evenodd" stroke="none"/>
      <path d="M4.9 0.05 L4.85 3.45 Q4.75 4.7 4.8 5.95 L4.25 6.05 1.65 6.65 -1.1 6.5 -3.7 5.6 -3.7 5.3 -3.7 2.55 Q-3.8 1.25 -3.2 0.65 -1.9 1.3 -1.15 2.5 L-0.55 4.25 Q-0.4 1.6 0.6 0.2 L0.85 -0.3 Q1.65 0.9 2.1 4.25 2.6 0.95 4.35 0.0 L4.65 -0.15 4.8 0.0 4.9 0.05 M4.8 7.4 L4.8 7.95 4.75 8.3 4.05 9.0 1.5 9.6 -1.25 9.45 -1.95 9.25 Q-3.0 8.95 -3.75 8.3 L-3.75 7.7 -3.7 7.2 -3.15 7.5 -1.55 7.95 -1.25 8.05 1.2 8.25 3.9 7.95 4.4 7.75 4.8 7.4" fill="url(#gradient0)" fill-rule="evenodd" stroke="none"/>
      <path d="M0.5 -2.65 Q-0.85 -1.25 0.95 -0.8 1.6 -0.6 1.75 -1.3 2.05 -2.9 0.5 -2.65 M4.65 -0.15 Q3.5 -1.45 4.8 -2.15 6.45 -2.3 6.35 -0.9 6.1 0.8 4.9 0.05 L4.85 3.45 Q4.75 4.7 4.8 5.95 L4.8 7.4 4.8 7.95 4.75 8.3 4.05 9.0 1.5 9.6 -1.25 9.45 -1.95 9.25 Q-3.0 8.95 -3.75 8.3 L-3.75 7.7 -3.7 7.2 -3.7 5.6 -3.7 5.3 -3.7 2.55 Q-3.8 1.25 -3.2 0.65 -3.75 0.95 -4.3 0.1 -5.25 -1.3 -3.55 -1.5 -2.15 -0.85 -3.2 0.65 -1.9 1.3 -1.15 2.5 L-0.55 4.25 Q-0.4 1.6 0.6 0.2 L0.85 -0.3 Q1.65 0.9 2.1 4.25 2.6 0.95 4.35 0.0 L4.65 -0.15 4.8 0.0 4.9 0.05" fill="none" stroke="#c46200" stroke-linecap="round" stroke-linejoin="round" stroke-width="1.0"/>
      <path d="M3.75 15.95 L0.85 15.55 -2.4 15.85 -3.85 15.7 Q-3.85 15.2 -2.55 14.25 L-1.9 13.85 Q-0.8 13.3 0.55 13.25 1.95 13.25 3.0 13.85 L3.6 14.25 Q4.9 15.2 4.9 15.75 4.9 16.2 3.75 15.95" fill="#ffa1cc" fill-rule="evenodd" stroke="none"/>
      <path d="M0.35 20.4 L-1.55 17.95 Q0.0 17.4 2.55 17.95 L0.35 20.4" fill="#cc0000" fill-rule="evenodd" stroke="none"/>
      <path d="M8.1 16.25 L10.0 15.75 M8.1 17.4 L10.05 16.9 M0.35 21.6 L0.35 20.45 0.35 20.4 M-7.25 15.85 L-9.2 15.35 M-7.25 16.95 L-9.2 16.5" fill="none" stroke="#ff6666" stroke-linecap="round" stroke-linejoin="round" stroke-width="1.0"/>
      <path d="M0.35 21.6 L1.2 21.7 3.3 21.7 Q4.6 21.55 5.85 20.85 7.05 20.15 9.25 19.2 M-8.6 18.75 Q-6.4 19.7 -5.25 20.45 -4.1 21.15 -2.75 21.55 L-0.55 21.7 0.35 21.6" fill="none" stroke="#bb4851" stroke-linecap="round" stroke-linejoin="round" stroke-width="1.0"/>
      <path d="M2.15 14.8 L3.0 13.85 Q4.25 12.6 5.5 12.7 7.1 12.8 7.9 14.1 M-1.1 14.75 L-1.9 13.85 Q-3.2 12.55 -4.45 12.65 -6.1 12.75 -6.9 14.05" fill="none" stroke="#bb4851" stroke-linecap="round" stroke-linejoin="round" stroke-width="1.0"/>
    </g>
    <linearGradient gradientTransform="matrix(0.0053, 0.0, 0.0, 0.0042, 0.6, 3.15)" gradientUnits="userSpaceOnUse" id="gradient0" spreadMethod="pad" x1="-819.2" x2="819.2">
      <stop offset="0.0" stop-color="#ff9900"/>
      <stop offset="0.4745098039215686" stop-color="#ffff33"/>
      <stop offset="1.0" stop-color="#ff9900"/>
    </linearGradient>
  </defs>
</svg>
